X: 2128
T: Üftâdenim Ey Bîvefa
C: Dede Efendi
O: Turkey
F: http://compmusic.upf.edu/node/140
N: rast--sarki--duyek--uftadenim_ey--dede_efendi
N: makam= rast
N: form= sarki
N: usul= duyek = 8/4
M: 8/4
L: 1/16
K: C _1/4B ^f  
Q: 1/4=120
%%MIDI tuningsystem comma53
g3/2f/ ge d4 e3/2d/ ec B4  | GA Bc de fg g3/2f/ ef g4  | 
w:  ARANAĞME  |   | 
g3/2f/ ge d4 e3/2d/ ec B4  | GB Ac Bd ce dc BA G4  | 
w:   |   | 
g3/2f/ ge d4 e3/2d/ ec B4  | GA Bc de fg g3/2f/ ef g4  | 
w:  ARANAĞME  |   | 
g3/2f/ ge d4 e3/2d/ ec B4  | GB Ac Bd ce dc BA G4  | 
w:   |   | 
z2 G4 B2 A2 BA B3/2A/ Ge  | d3/2c/ Bd c3/2B/ AB c2 {e}dc B3/2A/ G2  | 
w:  Üf *  tâ *  *  *  *  *  de  |  nim   | 
z2 G4 d2 d4 ^cd e{f}e/d/  | d4 ^c2 {f}ed d3=c B3/2A/ G2  | \
w:  ey  *  bî *  *  *  *  ve  |  fâ   *  *  *  *  SAZ  | 
z2 G4 B2 A2 BA B3/2A/ Ge  | 
w:  Üf *  tâ *  *  *  *  *  de  | 
d3/2c/ Bd c3/2B/ AB c2 {e}dc B3/2A/ G2  | \
w:  nim   | 
z2 G4 d2 d4 ^cd e{f}e/d/  | 
w:  ey  *  bî *  *  *  *  ve  | 
d4 ^c2 {f}ed d6 z2  | d2 g2 f2 g2 d2 ed dc B2  | \
w:  fâ    |  Lâ *  *  *  yık   | 
B2 d2 ^c2 d2 c2 {e}dc _7/8BA G2  | 
w:  mı *  *  *  dır   | 
z2 AB A2 c2 BA GF E3/2D/ EF  | G3A BG AF G3d ef g2  | 
w:  bun *  *  *  *  *  *  *  ca  *  *  ce  |  fâ   *  *  *  *  *  SAZ  | 
d2 g2 f2 g2 d2 ed dc B2  | B2 d2 ^c2 d2 c2 {e}dc _7/8BA G2  | \
w:  Lâ *  *  *  yık   |  mı *  *  *  dır   | 
z2 AB A2 c2 BA GF E3/2D/ EF  | 
w:  bun *  *  *  *  *  *  *  ca  *  *  ce  | 
G3A BG AF G4 e4  | z2 d4 e2 e4 e4  | \
w:  fâ   *  *  *  *  *  *  SAZ  |  Cür *  müm  ne  | 
g2 =fe d2 ^c_7/8B A2 BA GF G2  | 
w:  dir   | 
z2 g4 gf f3/2e/ d2 e3/2d/ ef  | g3a bg af g4 e4  | \
w:  söy *  *  *  *  *  le  *  *  ba  |  na   *  *  *  *  *  *  SAZ  | 
z2 d4 e2 e4 e4  | 
w:  Cür *  müm  ne  | 
g2 =fe d2 ^c_7/8B A2 BA GF G2  | z2 g4 gf f3/2e/ d2 e3/2d/ ef  | 
w:  dir   |  söy *  *  *  *  *  le  *  *  ba  | 
g3a bg af g3d ef g2  | d2 g2 f2 g2 d2 ed dc B2  | 
w:  na   *  *  *  *  *  *  SAZ  |  Lâ *  *  *  yık   | 
B2 d2 ^c2 d2 c2 {e}dc _7/8BA G2  | \
w:  mı *  *  *  dır   | 
z2 AB A2 c2 BA GF E3/2D/ EF  | 
w:  bun *  *  *  *  *  *  *  ca  *  *  ce  | 
G3A BG AF G3d ef g2  | d2 g2 f2 g2 d2 ed dc B2  | 
w:  fâ   *  *  *  *  *  SAZ  |  Lâ *  *  *  yık   | 
B2 d2 ^c2 d2 c2 {e}dc _7/8BA G2  | \
w:  mı *  *  *  dır   | 
z2 AB A2 c2 BA GF E3/2D/ EF  | 
w:  bun *  *  *  *  *  *  *  ca  *  *  ce  | 
G3A BG AF G4 |
w:  fâ    | 


